!!!!SEGMENT: pl-kk--kk-i-382--043-004_singenberger-johann-baptist--msza-na-czesc-sw-stanislawa-sanctus.krn
!!!cenid: 18xx:1540
!!!COM: Singenberger, Johann Baptist
!!!COM-rismID:
!!!CDT: 1848-1924
!!!CNT:
!!!OPR: Msza na cześć św. Stanisława
!!!OTL: Sanctus
!!!OMV: 004
!!!PDT:
!!!AGN: Sacred; Mass
!!!SMS-siglum: PL-Kk
!!!SMS-shelfmark: Kk.I.382
!!!SMS-shelfwork: 029-004 M
!!!SMS-variant:
!!!SMS-altvar:
!!!NIFC-rismSourceID: 1001140237
!!!NIFC-islandoraID: pl-kk:6162
!!!URL-pdf-islandora: https://repozytorium.nifc.pl/islandora/object/pl-kk%3A6162/datastream/PDF/view
!!!URL-scan: https://polish.musicsources.pl/pl/lokalizacje/galeria/rekopisy/5994 @EN{Scan on Polish Music Herritage in Open Access Website} @PL{Skany w portalu Dziedzictwo Muzyki Polskiej w otwartym dostępie}
!!!ONB-nifc: UWAGA: obsada: S (T 1), T 2, B 2; S (T 1): skan 0035,T 2: skan 0137, B 2: skan 0285. Osobne części Mszy: Kyrie, Gloria, Credo, Sanctus, Benedictus, Agnus Dei
!!!AIN: 1 bass 2 tenor
!!!key:
**kern	**text	**dynam	**kern	**text	**dynam	**kern	**text	**dynam
*part3	*part3	*part3	*part2	*part2	*part2	*part1	*part1	*part1
*staff3	*staff3	*staff3	*staff2	*staff2	*staff2	*staff1	*staff1	*staff1
*Ibass	*	*	*Itenor	*	*	*Itenor	*	*
*I"Basso II	*	*	*I"Tenore II	*	*	*I"Soprano vel Tenore I.	*	*
*I'B 2	*	*	*I'T 2	*	*	*I'S (T 1)	*	*
*clefF4	*	*	*clefG2	*	*	*clefG2	*	*
*k[b-]	*	*	*k[b-]	*	*	*k[b-]	*	*
*F:	*	*	*F:	*	*	*F:	*	*
*M4/4	*	*	*M4/4	*	*	*M4/4	*	*
*met(c)	*	*	*met(c)	*	*	*met(c)	*	*
=1	=1	=1	=1	=1	=1	=1	=1	=1
*2\right	*	*	*2\right	*	*	*2\right	*	*
!LO:TX:a:t=P:problem=all/left&colon; global	!	!	!LO:TX:a:t=P:problem=all/left&colon; global	!	!	!LO:TX:a:t=P:problem=all\right&colon; global	!	!
!LO:TX:a:t=P:problem=all\right&colon; global	!	!	!LO:TX:a:t=P:problem=all\right&colon; global	!	!	!LO:TX:a:i:t=Andante	!	!
!LO:TX:a:i:t=Andante	!	!	!LO:TX:a:i:t=Andante	!	!	!LO:TX:a:i:t=Sanctus.	!	!LO:DY:a:rj
!LO:TX:a:i:t=Sanctus	!	!LO:DY:b:rj	!LO:TX:a:i:t=Sanctus	!	!LO:DY:b:rj	!LO:TX:a:t=P:problem=nazwa części na pięciolinii przed kluczem	!	!
!LO:TX:a:t=P:problem=nazwa części na pięciolinii przed kluczem	!	!	!LO:TX:a:t=P:problem=nazwa części na pięciolinii przed kluczem	!	!	!	!	!
2F\	Sanc-	p	2a/	Sanc-	p	2cc\	Sanc-	p
2E\	-tus	.	2g/	-tus	.	2cc\	-tus	.
=2	=2	=2	=2	=2	=2	=2	=2	=2
2D\	Sanc-	.	(<4a/	Sanc-	.	2.ff\	Sanc-	.
.	.	.	4b-\)	.	.	.	.	.
2AA/	-tus	.	2cc\	-tus	.	.	.	.
.	.	.	.	.	.	4ee\	-tus	.
=3	=3	=3	=3	=3	=3	=3	=3	=3
!	!	!LO:DY:b:rj	!	!	!	!	!	!
(<2BB-/	Sanc-	mp	[>1b-	Sanc-	.	(>2dd\	Sanc-	.
2D\	.	.	.	.	.	2ff\	.	.
=4	=4	=4	=4	=4	=4	=4	=4	=4
2E\)	.	.	2b-\]	.	.	2gg\)	.	.
2F\	tus	.	2a/	tus	.	2cc\	tus	.
=5	=5	=5	=5	=5	=5	=5	=5	=5
2E\	Do-	.	2g/	Do-	.	2cc\	Do-	.
4D\	-mi-	.	8a/L	-mi-	.	4dd\	-mi-	.
.	.	.	8bn/J	.	.	.	.	.
4C/	-nu[s]	.	4cc\	-nus	.	4ee\	-nus	.
!LO:LB:g=original	!	!	!LO:LB:g=original	!	!	!LO:LB:g=original	!	!
=6	=6	=6	=6	=6	=6	=6	=6	=6
2D\	De-	.	(>4cc\	De-	.	2ff\	De-	.
.	.	.	4bn\)	.	.	.	.	.
(>4E\	-us	.	2cc\	-us	.	2ee\	-us	.
4F\)	.	.	.	.	.	.	.	.
=7	=7	=7	=7	=7	=7	=7	=7	=7
2G\	Sa-	.	4cc\	Sa-	.	2.dd\	Sa-	.
.	.	.	4a/	.	.	.	.	.
2GG/	ba-	.	4bn\	.	.	.	.	.
.	.	.	4b\	-ba-	.	4dd\	-ba-	.
=8	=8	=8	=8	=8	=8	=8	=8	=8
2.C/	-oth	.	2.cc\	-oth	.	2.cc\	-oth	.
4r	.	.	4r	.	.	4r	.	.
=9	=9	=9	=9	=9	=9	=9	=9	=9
!	!	!LO:DY:b:rj	!	!	!LO:DY:b:rj	!	!	!
2c\	Ple-	f	2cc\	Ple-	f	2ee\	Ple-	.
4c\	-ni	.	4cc\	-ni	.	4ee\	-ni	.
4c\	sunt	.	4cc\	sunt	.	4ee\	sunt	.
=10	=10	=10	=10	=10	=10	=10	=10	=10
2A\	coe-	.	2dd\	coe-	.	2ff\	coe-	.
4F\	-li	.	4a/	-li	.	4cc\	-li	.
4F\	et	.	4a/	et	.	4dd\	et	.
=11	=11	=11	=11	=11	=11	=11	=11	=11
(2>E-X\	ter-	.	(<4.g/	ter-	.	2ee-X\	ter-	.
.	.	.	8a/)	.	.	.	.	.
4G\)	.	.	2b-\	-ra	.	2dd\	-ra	.
4G\	-ra	.	.	.	.	.	.	.
!LO:LB:g=original	!	!	!LO:LB:g=original	!	!	!LO:LB:g=original	!	!
=12	=12	=12	=12	=12	=12	=12	=12	=12
2F#X\	glo-	.	2a/	glo-	.	2dd\	glo-	.
4G\	-ri-	.	4b-/	-ri-	.	4dd\	-ri-	.
4G\	-a	.	4g/	-a	.	4b-\	-a	.
=13	=13	=13	=13	=13	=13	=13	=13	=13
!LO:TX:a:t=P:problem=kasownik dopisany ołówkiem	!	!	!	!	!	!	!	!
(<4.En\	tu-	.	(<4.g/	tu-	.	1cc	Tu-	.
8C/	.	.	8a/)	.	.	.	.	.
4D\	.	.	2b-\	.	.	.	.	.
4E\)	.	.	.	.	.	.	.	.
=14	=14	=14	=14	=14	=14	=14	=14	=14
2F\	-a	.	2a/	-a	.	2cc\	-a	.
!	!	!	!LO:TX:a:i:t=piu mosso	!	!	!	!	!
2r	.	.	4r	.	.	4r	.	.
!	!	!	!	!	!LO:DY:b:rj	!	!	!
.	.	.	4a/	Ho-	f	4cc\	Ho-	.
=15	=15	=15	=15	=15	=15	=15	=15	=15
2r	.	.	4g/	-san-	.	4.ee\	-san-	.
.	.	.	4cc\	-na	.	.	.	.
.	.	.	.	.	.	8cc\	-na	.
4r	.	.	4b-\	in	.	4dd\	in	.
4C/	Ho-	.	8a/L	ex-	.	4ee\	ex-	.
.	.	.	8g/J	.	.	.	.	.
=16	=16	=16	=16	=16	=16	=16	=16	=16
4D\	-san-	.	(<4f/	-cel-	.	(>4ff\	-cel-	.
4C/	-na	.	8g/L	.	.	4ee\)	.	.
.	.	.	8a/J)	.	.	.	.	.
4BB-/	in	.	4b-\	-sis	.	4dd\	-sis	.
4D\	ex-	.	4f#X/	Ho-	.	4dd\	Ho-	.
!	!	!	!LO:LB:g=original	!	!	!	!	!
=17	=17	=17	=17	=17	=17	=17	=17	=17
(>4.B-\	-cel-	.	(<4.g/	-san-	.	2dd\	-san-	.
8A\)	.	.	8a/	.	.	.	.	.
!LO:LB:g=original	!	!	!	!	!	!	!	!
4G\	-sis	.	4b-\	.	.	4dd\	-na	.
4F\	Ho-	.	4a/)	.	.	4dd\	Ho-	.
!	!	!	!	!	!	!LO:LB:g=original	!	!
=18	=18	=18	=18	=18	=18	=18	=18	=18
4.E\	-san-	.	4g/	-na	.	4.gg\	-san-	.
.	.	.	4g/	Ho-	.	.	.	.
8D\	-na	.	.	.	.	8ff\	-na	.
4C/	in	.	4.cc\	-san-	.	4ee\	in	.
4D\	ex-	.	.	.	.	4dd\	ex-	.
.	.	.	8b-\	-na	.	.	.	.
=19	=19	=19	=19	=19	=19	=19	=19	=19
2E\	-cel-	.	4a/	in	.	(>4cc\	-cel-	.
.	.	.	4g/	ex-	.	4b-\)	.	.
4F\	-sis	.	4f/	-cel-	.	4a/	-sis	.
4F\	Ho-	.	4g/	.	.	4b-\	Ho-	.
=20	=20	=20	=20	=20	=20	=20	=20	=20
(>2F\	-san-	.	2a/	-sis	.	4cc\	-san-	.
.	.	.	.	.	.	4dd\	-na	.
4.E-X\)	.	.	[<2g/	in	.	[>2ee-X\	in	.
8D\	-na	.	.	.	.	.	.	.
!LO:LB:g=original	!	!	!	!	!	!	!	!
=21	=21	=21	=21	=21	=21	=21	=21	=21
!LO:TX:a:t=P:problem=wykreślone takty	!	!	!	!	!	!	!	!
4C/	in	.	4g/]	.	.	4ee-\]	.	.
4F\	ex-	.	4a/	ex-	.	8dd\L	ex-	.
.	.	.	.	.	.	8cc\J	.	.
2BB-/	-cel-	.	2b-\	-cel-	.	2dd\	-cel-	.
!	!	!	!LO:LB:g=original	!	!	!	!	!
=22	=22	=22	=22	=22	=22	=22	=22	=22
2D\	-sis	.	2f/	-sis	.	2b-\	-sis	.
4BB-/	in	.	4b-\	in	.	4dd\	in	.
4BB-/	ex-	.	4b-\	ex-	.	4dd\	ex-	.
!	!	!	!	!	!	!LO:LB:g=original	!	!
=23	=23	=23	=23	=23	=23	=23	=23	=23
!LO:TX:a:t=rit.	!	!	!	!	!	!	!	!
1C	-cel-	.	(<2a/	-cel-	.	(<4cc\	-cel-	.
.	.	.	.	.	.	(<2ff\)	.	.
.	.	.	4g/	.	.	.	.	.
.	.	.	8a/L	.	.	4ee\)	.	.
.	.	.	8b-/J)	.	.	.	.	.
=24	=24	=24	=24	=24	=24	=24	=24	=24
1F;>	-sis	.	1a;>	-sis.	.	1ff;>	-sis.	.
==	==	==	==	==	==	==	==	==
*-	*-	*-	*-	*-	*-	*-	*-	*-
!!!system-decoration: [(s1,s2,s3)]
!!!RDF**kern: > = above
!!!RDF**kern: < = below
!!!EED: Mateusz Mrugas
!!!EEV: 2021-02-09
!!!ENC: Tomasz Grochalski
!!!END: 2021-01-30
